flaticon/business/cart-9.svg

<svg xmlns="http://www.w3.org/2000/svg" width="32" height="32" viewBox="0 0 24 24">
    <path d="M 4.671875 5 L 4.339844 3 L 3.140625 3 C 2.964844 2.3125 2.34375 1.800781 1.601562 1.800781 C 0.71875 1.800781 0 2.519531 0 3.402344 C 0 4.285156 0.71875 5 1.601562 5 C 2.34375 5 2.964844 4.488281 3.140625 3.800781 L 3.660156 3.800781 L 3.859375 5 L 3.847656 5 L 3.9375 5.464844 L 3.9375 5.46875 L 4.960938 10.816406 L 5.378906 13 L 5.914062 15.804688 C 4.929688 15.878906 4.105469 16.636719 4.007812 17.59375 C 3.953125 18.15625 4.136719 18.71875 4.515625 19.136719 C 4.894531 19.558594 5.4375 19.796875 6 19.796875 L 6.796875 19.796875 C 6.796875 21.121094 7.875 22.199219 9.199219 22.199219 C 10.519531 22.199219 11.597656 21.121094 11.597656 19.796875 L 15.996094 19.796875 C 15.996094 21.121094 17.074219 22.199219 18.394531 22.199219 C 19.71875 22.199219 20.796875 21.121094 20.796875 19.796875 L 22.394531 19.796875 C 22.617188 19.796875 22.792969 19.621094 22.792969 19.398438 C 22.792969 19.175781 22.617188 19 22.394531 19 L 20.65625 19 C 20.324219 18.066406 19.4375 17.398438 18.394531 17.398438 C 17.351562 17.398438 16.464844 18.066406 16.136719 19 L 11.457031 19 C 11.125 18.066406 10.238281 17.398438 9.199219 17.398438 C 8.15625 17.398438 7.269531 18.066406 6.9375 19 L 6 19 C 5.660156 19 5.339844 18.851562 5.109375 18.601562 C 4.878906 18.34375 4.769531 18.015625 4.804688 17.675781 C 4.867188 17.070312 5.421875 16.597656 6.074219 16.597656 L 6.386719 16.597656 C 6.394531 16.597656 6.402344 16.597656 6.410156 16.597656 L 13.195312 16.597656 L 16.054688 16.59375 L 22.003906 16.59375 C 23.105469 16.59375 24 15.699219 24 14.601562 L 24 4.996094 Z M 1.601562 4.203125 C 1.160156 4.203125 0.800781 3.84375 0.800781 3.402344 C 0.800781 2.960938 1.160156 2.601562 1.601562 2.601562 C 2.039062 2.601562 2.398438 2.960938 2.398438 3.402344 C 2.398438 3.84375 2.039062 4.203125 1.601562 4.203125 Z M 18.394531 18.199219 C 19.277344 18.199219 19.996094 18.914062 19.996094 19.796875 C 19.996094 20.679688 19.277344 21.398438 18.394531 21.398438 C 17.515625 21.398438 16.796875 20.679688 16.796875 19.796875 C 16.796875 18.914062 17.515625 18.199219 18.394531 18.199219 Z M 9.199219 18.199219 C 10.082031 18.199219 10.796875 18.914062 10.796875 19.796875 C 10.796875 20.679688 10.082031 21.398438 9.199219 21.398438 C 8.316406 21.398438 7.597656 20.679688 7.597656 19.796875 C 7.597656 18.914062 8.316406 18.199219 9.199219 18.199219 Z M 23.199219 8.601562 L 20.394531 8.601562 L 20.394531 5.796875 L 23.199219 5.796875 Z M 16.796875 15.796875 L 16.796875 13 L 19.597656 13 L 19.597656 15.796875 Z M 16.796875 12.199219 L 16.796875 9.398438 L 19.597656 9.398438 L 19.597656 12.199219 Z M 9.597656 15.796875 L 9.597656 13 L 12.398438 13 L 12.398438 15.796875 Z M 9.597656 12.199219 L 9.597656 9.398438 L 12.398438 9.398438 L 12.398438 12.199219 Z M 5.503906 9.398438 L 8.796875 9.398438 L 8.796875 12.199219 L 6.039062 12.199219 Z M 19.597656 8.601562 L 16.796875 8.601562 L 16.796875 5.800781 L 19.597656 5.800781 Z M 15.996094 8.601562 L 13.195312 8.601562 L 13.195312 5.796875 L 15.996094 5.796875 Z M 12.398438 5.800781 L 12.398438 8.601562 L 9.597656 8.601562 L 9.597656 5.800781 Z M 13.195312 9.398438 L 15.996094 9.398438 L 15.996094 12.199219 L 13.195312 12.199219 Z M 20.394531 9.398438 L 23.195312 9.398438 L 23.195312 12.199219 L 20.394531 12.199219 Z M 8.796875 5.800781 L 8.796875 8.601562 L 5.351562 8.601562 L 4.816406 5.800781 Z M 6.195312 13 L 8.796875 13 L 8.796875 15.796875 L 6.730469 15.796875 Z M 13.195312 13 L 15.996094 13 L 15.996094 15.796875 L 13.195312 15.796875 Z M 22.003906 15.792969 L 20.394531 15.792969 L 20.394531 13 L 23.199219 13 L 23.199219 14.597656 C 23.199219 15.257812 22.664062 15.792969 22.003906 15.792969 Z M 22.003906 15.792969"/>
</svg>

<svg xmlns="http://www.w3.org/2000/svg" width="32" height="32" viewBox="0 0 24 24">
    <path d="M4.672 5L4.34 3h-1.2a1.592 1.592 0 0 0-1.538-1.2C.719 1.8 0 2.52 0 3.403A1.6 1.6 0 0 0 1.602 5c.742 0 1.363-.512 1.539-1.2h.52L3.858 5h-.011l.09.465v.004l1.023 5.347L5.379 13l.535 2.805c-.984.074-1.809.832-1.906 1.789a2.01 2.01 0 0 0 .508 1.543c.379.422.921.66 1.484.66h.797a2.406 2.406 0 0 0 2.402 2.402 2.405 2.405 0 0 0 2.399-2.402h4.398a2.405 2.405 0 0 0 2.399 2.402 2.406 2.406 0 0 0 2.402-2.402h1.598a.395.395 0 0 0 .398-.399.395.395 0 0 0-.398-.398h-1.739a2.394 2.394 0 1 0-4.52 0h-4.679a2.401 2.401 0 0 0-2.258-1.602c-1.043 0-1.93.668-2.261 1.602H6c-.34 0-.66-.148-.89-.398a1.191 1.191 0 0 1-.305-.926c.062-.606.617-1.078 1.27-1.078h7.12l2.86-.004h5.949A1.996 1.996 0 0 0 24 14.602V4.996zm-3.07-.797a.802.802 0 0 1 0-1.601.801.801 0 0 1 0 1.601zM18.395 18.2a1.6 1.6 0 0 1 1.601 1.598c0 .883-.719 1.601-1.601 1.601a1.6 1.6 0 1 1 0-3.2zm-9.196 0a1.6 1.6 0 0 1 0 3.2 1.604 1.604 0 0 1-1.601-1.602 1.6 1.6 0 0 1 1.601-1.598zm14-9.597h-2.804V5.797h2.804zm-6.402 7.195V13h2.8v2.797zm0-3.598V9.4h2.8v2.8zm-7.2 3.598V13h2.801v2.797zm0-3.598V9.4h2.801v2.8zM5.505 9.4h3.293v2.8H6.039zm14.094-.797h-2.801V5.8h2.8zm-3.602 0h-2.8V5.797h2.8zM12.398 5.8v2.8h-2.8v-2.8zm.797 3.597h2.801V12.2h-2.8zm7.2 0h2.8V12.2h-2.8zM8.797 5.801v2.8H5.352l-.536-2.8zM6.195 13h2.602v2.797H6.73zm7 0h2.801v2.797h-2.8zm8.809 2.793h-1.61V13H23.2v1.598c0 .66-.535 1.195-1.195 1.195zm0 0"/>
</svg>
